static/icons/homepage/svg/logo-dmx-vertical.svg

<svg width="95" height="55" viewBox="0 0 95 55" fill="none" xmlns="http://www.w3.org/2000/svg">
<path d="M0 14.5776H6.45988C8.15299 14.5776 9.65819 14.9285 10.9716 15.6265C12.2851 16.3264 13.3071 17.2947 14.0376 18.5295C14.7682 19.7663 15.1344 21.1698 15.1344 22.7383C15.1344 24.3068 14.7682 25.7123 14.0376 26.9471C13.3071 28.1839 12.2851 29.1503 10.9716 29.8501C9.65819 30.55 8.15299 30.899 6.45988 30.899H0V14.5776ZM6.36593 29.829C7.87304 29.829 9.20184 29.5299 10.3542 28.9317C11.5047 28.3334 12.3906 27.4974 13.0137 26.4236C13.635 25.3518 13.9456 24.1227 13.9456 22.7402C13.9456 21.3577 13.635 20.1287 13.0137 19.0568C12.3906 17.9849 11.5047 17.1489 10.3542 16.5507C9.20375 15.9524 7.87496 15.6533 6.36593 15.6533H1.18882V29.8309H6.36593V29.829Z" fill="white"/>
<path d="M25.7014 19.7896C26.5086 20.5585 26.9132 21.6898 26.9132 23.1816V30.9012H25.7934V28.7326C25.4042 29.4478 24.8385 30.0038 24.0907 30.4008C23.3448 30.7977 22.4513 30.9952 21.4082 30.9952C20.0564 30.9952 18.9865 30.6769 18.2022 30.0384C17.418 29.3998 17.0249 28.5619 17.0249 27.5207C17.0249 26.4796 17.3854 25.6896 18.1102 25.0607C18.8331 24.4317 19.9874 24.1173 21.5731 24.1173H25.7474V23.1375C25.7474 22.0023 25.4406 21.1395 24.827 20.5489C24.2115 19.9583 23.3141 19.663 22.133 19.663C21.3257 19.663 20.5511 19.803 19.8129 20.083C19.0747 20.3629 18.4496 20.7368 17.9357 21.2028L17.3528 20.3629C17.9587 19.8184 18.6892 19.3965 19.5444 19.0916C20.3996 18.7887 21.2931 18.6372 22.2269 18.6372C23.7341 18.6372 24.8941 19.0226 25.7014 19.7915V19.7896ZM24.1501 29.3385C24.8577 28.8725 25.3888 28.1957 25.7474 27.3098V25.0242H21.598C20.3996 25.0242 19.5329 25.2428 18.998 25.6762C18.4611 26.1114 18.1926 26.7097 18.1926 27.4728C18.1926 28.236 18.4879 28.8917 19.0785 29.35C19.6691 29.8083 20.5012 30.0384 21.5731 30.0384C22.5836 30.0384 23.4426 29.8044 24.1501 29.3385V29.3385Z" fill="white"/>
<path d="M36.5486 30.1321C36.2533 30.412 35.8832 30.6248 35.4422 30.7725C34.9993 30.9201 34.5353 30.9949 34.054 30.9949C32.9975 30.9949 32.1806 30.7035 31.6054 30.1206C31.0302 29.5377 30.7425 28.7247 30.7425 27.6835V19.7318H28.5049V18.729H30.7425V16.0714H31.9084V18.729H35.7778V19.7318H31.9084V27.5665C31.9084 28.3584 32.0982 28.9624 32.4798 29.3747C32.8594 29.7869 33.4231 29.9921 34.1709 29.9921C34.9188 29.9921 35.5611 29.7658 36.0596 29.3152L36.5505 30.1321H36.5486Z" fill="white"/>
<path d="M46.5358 19.7896C47.3431 20.5585 47.7477 21.6898 47.7477 23.1816V30.9012H46.6279V28.7326C46.2405 29.4478 45.673 30.0038 44.9252 30.4008C44.1793 30.7977 43.2858 30.9952 42.2427 30.9952C40.8909 30.9952 39.8209 30.6769 39.0367 30.0384C38.2525 29.3998 37.8594 28.5619 37.8594 27.5207C37.8594 26.4796 38.2199 25.6896 38.9447 25.0607C39.6675 24.4317 40.8218 24.1173 42.4076 24.1173H46.5819V23.1375C46.5819 22.0023 46.2751 21.1395 45.6615 20.5489C45.046 19.9583 44.1486 19.663 42.9675 19.663C42.1602 19.663 41.3856 19.803 40.6473 20.083C39.9091 20.3629 39.284 20.7368 38.7702 21.2028L38.1873 20.3629C38.7932 19.8184 39.5237 19.3965 40.3789 19.0916C41.2341 18.7887 42.1276 18.6372 43.0614 18.6372C44.5685 18.6372 45.7286 19.0226 46.5358 19.7915V19.7896ZM44.9846 29.3385C45.6922 28.8725 46.2233 28.1957 46.5819 27.3098V25.0242H42.4325C41.2341 25.0242 40.3674 25.2428 39.8324 25.6762C39.2955 26.1114 39.0271 26.7097 39.0271 27.4728C39.0271 28.236 39.3224 28.8917 39.913 29.35C40.5035 29.8083 41.3357 30.0384 42.4076 30.0384C43.4181 30.0384 44.2771 29.8044 44.9846 29.3385V29.3385Z" fill="white"/>
<path d="M15.1248 54.4608L15.0999 44.4881L10.2085 52.7025H8.47512L3.60864 44.701V54.4589H0V37.8403H3.18105L9.40125 48.1677L15.5275 37.8403H18.6855L18.7335 54.4589H15.1248V54.4608Z" fill="#DDC9A3"/>
<path d="M34.9202 51.3738V54.4608H22.0522V37.8423H34.6115V40.9294H25.8737V44.538H33.5895V47.5293H25.8737V51.3757H34.9183L34.9202 51.3738ZM29.3884 33.0679H33.3767L29.0778 36.4867H26.1805L29.3865 33.0679H29.3884Z" fill="#DDC9A3"/>
<path d="M48.2298 54.4607L44.2166 48.6911L40.2762 54.4607H35.8604L42.0096 46.0086L36.1691 37.8422H40.537L44.3604 43.2321L48.1109 37.8422H52.266L46.4715 45.8667L52.6687 54.4607H48.2279H48.2298Z" fill="#DDC9A3"/>
<path d="M54.0386 37.8403H57.885V54.4589H54.0386V37.8403Z" fill="#DDC9A3"/>
<path d="M64.6012 53.64C63.2321 52.9037 62.1564 51.8836 61.3722 50.5778C60.5879 49.272 60.1968 47.7956 60.1968 46.1504C60.1968 44.5052 60.5899 43.0288 61.3722 41.723C62.1564 40.4172 63.2321 39.3971 64.6012 38.6608C65.9702 37.9245 67.5099 37.5564 69.2184 37.5564C70.6584 37.5564 71.9603 37.8095 73.1242 38.3157C74.2881 38.8219 75.266 39.5505 76.056 40.4997L73.5863 42.7795C72.4627 41.4814 71.0687 40.8333 69.4082 40.8333C68.3785 40.8333 67.462 41.0596 66.6547 41.5102C65.8475 41.9608 65.2186 42.5897 64.7661 43.3969C64.3155 44.2042 64.0892 45.1226 64.0892 46.1504C64.0892 47.1782 64.3135 48.0966 64.7661 48.9039C65.2167 49.7111 65.8475 50.34 66.6547 50.7925C67.462 51.2431 68.3805 51.4694 69.4082 51.4694C71.0706 51.4694 72.4627 50.8117 73.5863 49.4983L76.056 51.7781C75.2641 52.7445 74.2824 53.4789 73.1127 53.987C71.9412 54.4932 70.6354 54.7463 69.1954 54.7463C67.5003 54.7463 65.9702 54.3782 64.6012 53.6419V53.64Z" fill="#DDC9A3"/>
<path d="M80.9679 53.6287C79.5835 52.8847 78.4982 51.8589 77.7159 50.5531C76.9317 49.2473 76.5405 47.7785 76.5405 46.1487C76.5405 44.5189 76.9336 43.0501 77.7159 41.7443C78.5002 40.4385 79.5835 39.4146 80.9679 38.6706C82.3523 37.9267 83.9074 37.5547 85.6331 37.5547C87.3588 37.5547 88.91 37.9267 90.2867 38.6706C91.6634 39.4146 92.7468 40.4404 93.5387 41.7443C94.3306 43.0501 94.7256 44.5189 94.7256 46.1487C94.7256 47.7785 94.3287 49.2473 93.5387 50.5531C92.7468 51.8589 91.6634 52.8847 90.2867 53.6287C88.91 54.3726 87.3588 54.7446 85.6331 54.7446C83.9074 54.7446 82.3523 54.3726 80.9679 53.6287ZM88.2926 50.7908C89.0845 50.3402 89.7057 49.7113 90.1563 48.9022C90.6069 48.0949 90.8332 47.1764 90.8332 46.1487C90.8332 45.1209 90.6089 44.2006 90.1563 43.3952C89.7057 42.588 89.0845 41.9591 88.2926 41.5085C87.5007 41.0579 86.6148 40.8316 85.6331 40.8316C84.6513 40.8316 83.7655 41.0579 82.9736 41.5085C82.1817 41.9591 81.5604 42.588 81.1098 43.3952C80.6592 44.2025 80.433 45.1209 80.433 46.1487C80.433 47.1764 80.6573 48.0949 81.1098 48.9022C81.5604 49.7094 82.1817 50.3383 82.9736 50.7908C83.7655 51.2414 84.6513 51.4677 85.6331 51.4677C86.6148 51.4677 87.5007 51.2414 88.2926 50.7908V50.7908Z" fill="#DDC9A3"/>
<path d="M53.5761 18.5603C53.3633 18.5603 53.1735 18.4088 53.1351 18.1921L50.303 2.6934C50.2666 2.49015 50.3721 2.2869 50.5619 2.20253C50.7517 2.11817 50.9741 2.17377 51.1007 2.33676L59.2153 12.8099L68.9176 7.64234C69.1381 7.52537 69.4085 7.60974 69.5255 7.82833C69.6424 8.04692 69.56 8.3192 69.3395 8.43616L59.3016 13.7801C59.108 13.8836 58.8683 13.8319 58.7341 13.6593L51.5168 4.34432L54.0191 18.0292C54.0632 18.2727 53.9021 18.5085 53.6567 18.5526C53.6298 18.5584 53.603 18.5603 53.5761 18.5603V18.5603Z" fill="white"/>
<path d="M55.7869 18.1096C55.7869 19.331 54.7975 20.3204 53.5761 20.3204C52.3546 20.3204 51.3652 19.331 51.3652 18.1096C51.3652 16.8882 52.3546 15.8988 53.5761 15.8988C54.7975 15.8988 55.7869 16.8882 55.7869 18.1096Z" fill="white"/>
<path d="M61.2996 13.3853C61.2996 14.6067 60.3102 15.5961 59.0887 15.5961C57.8673 15.5961 56.8779 14.6067 56.8779 13.3853C56.8779 12.1638 57.8673 11.1744 59.0887 11.1744C60.3102 11.1744 61.2996 12.1638 61.2996 13.3853Z" fill="white"/>
<path d="M71.3372 8.04102C71.3372 9.26243 70.3478 10.2518 69.1263 10.2518C67.9049 10.2518 66.9155 9.26243 66.9155 8.04102C66.9155 6.8196 67.9049 5.8302 69.1263 5.8302C70.3478 5.8302 71.3372 6.8196 71.3372 8.04102Z" fill="white"/>
<path d="M73.0471 28.9911C73.0471 30.2125 72.0577 31.2019 70.8363 31.2019C69.6149 31.2019 68.6255 30.2125 68.6255 28.9911C68.6255 27.7697 69.6149 26.7803 70.8363 26.7803C72.0577 26.7803 73.0471 27.7697 73.0471 28.9911Z" fill="white"/>
<path d="M75.197 18.5144C75.197 19.7358 74.2076 20.7252 72.9862 20.7252C71.7648 20.7252 70.7754 19.7358 70.7754 18.5144C70.7754 17.293 71.7648 16.3036 72.9862 16.3036C74.2076 16.3036 75.197 17.293 75.197 18.5144Z" fill="white"/>
<path d="M64.5496 22.0347C64.5496 23.2561 63.5602 24.2455 62.3387 24.2455C61.1173 24.2455 60.1279 23.2561 60.1279 22.0347C60.1279 20.8133 61.1173 19.8239 62.3387 19.8239C63.5602 19.8239 64.5496 20.8133 64.5496 22.0347Z" fill="white"/>
<path d="M88.155 31.1252C88.155 32.3467 87.1656 33.3361 85.9442 33.3361C84.7228 33.3361 83.7334 32.3467 83.7334 31.1252C83.7334 29.9038 84.7228 28.9144 85.9442 28.9144C87.1656 28.9144 88.155 29.9038 88.155 31.1252Z" fill="white"/>
<path d="M95.0007 23.7643C95.0007 24.9857 94.0113 25.9751 92.7899 25.9751C91.5685 25.9751 90.5791 24.9857 90.5791 23.7643C90.5791 22.5429 91.5685 21.5535 92.7899 21.5535C94.0113 21.5535 95.0007 22.5429 95.0007 23.7643Z" fill="white"/>
<path d="M81.9314 24.8344C81.9314 26.0558 80.942 27.0452 79.7206 27.0452C78.4992 27.0452 77.5098 26.0558 77.5098 24.8344C77.5098 23.6129 78.4992 22.6235 79.7206 22.6235C80.942 22.6235 81.9314 23.6129 81.9314 24.8344V24.8344Z" fill="white"/>
<path d="M52.9548 2.61292C52.9548 3.83433 51.9654 4.82374 50.744 4.82374C49.5226 4.82374 48.5332 3.83433 48.5332 2.61292C48.5332 1.3915 49.5226 0.4021 50.744 0.4021C51.9654 0.4021 52.9548 1.3915 52.9548 2.61292Z" fill="white"/>
<path d="M69.1258 8.48968C69.0836 8.48968 69.0414 8.48393 68.9973 8.47051L50.6147 3.04221C50.377 2.97126 50.2408 2.72199 50.3118 2.48423C50.3827 2.24647 50.632 2.11033 50.8697 2.18127L69.2523 7.60957C69.4901 7.68052 69.6262 7.92978 69.5553 8.16755C69.4978 8.36313 69.3175 8.48968 69.1239 8.48968H69.1258Z" fill="white"/>
<path d="M85.9444 31.5759C85.9233 31.5759 85.9022 31.5759 85.8812 31.5721L70.7774 29.436C70.7774 29.436 70.7659 29.436 70.7602 29.4322H70.7582C70.6815 29.4188 70.6106 29.3842 70.5531 29.3363L62.0626 22.3894C61.9955 22.3376 61.9476 22.2686 61.9188 22.1919C61.9188 22.1919 61.9188 22.19 61.9188 22.1881C61.9188 22.1881 61.915 22.1785 61.915 22.1746C61.8843 22.0749 61.8862 21.9656 61.9284 21.864C61.9322 21.8544 61.9361 21.8468 61.9399 21.8372L68.7257 7.84554C68.7929 7.7094 68.9232 7.61545 69.0747 7.59628C69.2262 7.57902 69.3758 7.63654 69.4735 7.75159C69.5407 7.8302 69.625 7.92991 73.3756 18.263L80.031 24.5063C80.031 24.5063 80.0387 24.5139 80.0425 24.5178L80.0464 24.5216L86.2685 30.8127C86.4046 30.9508 86.4372 31.1579 86.3509 31.3305C86.2742 31.4839 86.117 31.5778 85.9502 31.5778L85.9444 31.5759ZM72.3977 28.7572L84.6866 30.4944L79.6245 25.3749L72.3977 28.7572V28.7572ZM73.2643 19.3943L71.4581 28.205L78.9304 24.7095L73.2663 19.3943H73.2643ZM63.2572 22.2072L70.5473 28.1724L72.39 19.1873L63.2572 22.2072V22.2072ZM69.0824 9.16475L63.2092 21.2773L72.4053 18.2362C71.274 15.1223 69.765 10.9863 69.0824 9.16475Z" fill="white"/>
<path d="M85.9443 31.5759C85.835 31.5759 85.7257 31.5356 85.6375 31.4551C85.4554 31.2863 85.4458 31.0006 85.6145 30.8204L92.4617 23.4593C92.6304 23.2771 92.9161 23.2675 93.0964 23.4363C93.2785 23.605 93.2881 23.8907 93.1194 24.071L86.2722 31.432C86.184 31.5279 86.0632 31.5759 85.9424 31.5759H85.9443Z" fill="white"/>
<path d="M62.3408 22.4853C62.1586 22.4853 61.9879 22.3741 61.9208 22.1939L58.6708 13.5443C58.5826 13.3123 58.7014 13.0534 58.9334 12.9652C59.1655 12.877 59.4243 12.9959 59.5125 13.2279L62.7626 21.8775C62.8508 22.1095 62.7319 22.3684 62.4999 22.4566C62.4481 22.4757 62.3944 22.4853 62.3427 22.4853H62.3408Z" fill="white"/>
</svg>

<?xml version="1.0"?>
<svg width="95" height="55" xmlns="http://www.w3.org/2000/svg" xmlns:svg="http://www.w3.org/2000/svg">
 <g class="layer">
  <title>Layer 1</title>
  <path d="m0,14.58l6.46,0c1.69,0 3.2,0.35 4.51,1.05c1.32,0.7 2.34,1.66 3.07,2.9c0.73,1.24 1.09,2.64 1.09,4.21c0,1.57 -0.36,2.97 -1.09,4.21c-0.73,1.23 -1.75,2.2 -3.07,2.9c-1.31,0.7 -2.82,1.05 -4.51,1.05l-6.46,0l0,-16.32zm6.37,15.25c1.5,0 2.83,-0.3 3.98,-0.9c1.15,-0.6 2.04,-1.43 2.66,-2.51c0.62,-1.07 0.94,-2.3 0.94,-3.68c0,-1.38 -0.32,-2.61 -0.94,-3.68c-0.62,-1.08 -1.51,-1.91 -2.66,-2.51c-1.15,-0.6 -2.48,-0.9 -3.98,-0.9l-5.18,0l0,14.18l5.18,0l0,0z" fill="white" id="svg_1"/>
  <path d="m25.7,19.79c0.81,0.77 1.21,1.9 1.21,3.39l0,7.72l-1.12,0l0,-2.17c-0.39,0.72 -0.95,1.27 -1.7,1.67c-0.75,0.4 -1.64,0.6 -2.68,0.6c-1.35,0 -2.42,-0.32 -3.21,-0.96c-0.78,-0.64 -1.18,-1.48 -1.18,-2.52c0,-1.04 0.37,-1.83 1.09,-2.46c0.72,-0.63 1.88,-0.94 3.46,-0.94l4.18,0l0,-0.98c0,-1.14 -0.31,-2 -0.92,-2.59c-0.62,-0.59 -1.52,-0.89 -2.7,-0.89c-0.8,0 -1.58,0.14 -2.32,0.42c-0.74,0.28 -1.36,0.66 -1.87,1.12l-0.59,-0.84c0.61,-0.54 1.34,-0.96 2.19,-1.27c0.86,-0.3 1.75,-0.45 2.69,-0.45c1.5,0 2.66,0.38 3.47,1.15l0,0zm-1.55,9.55c0.71,-0.47 1.24,-1.14 1.6,-2.03l0,-2.29l-4.15,0c-1.2,0 -2.07,0.22 -2.6,0.66c-0.54,0.43 -0.81,1.03 -0.81,1.79c0,0.77 0.3,1.42 0.89,1.88c0.59,0.46 1.42,0.69 2.49,0.69c1.01,0 1.87,-0.24 2.58,-0.7l0,0z" fill="white" id="svg_2"/>
  <path d="m36.55,30.13c-0.3,0.28 -0.67,0.49 -1.11,0.64c-0.44,0.15 -0.9,0.22 -1.39,0.22c-1.05,0 -1.87,-0.29 -2.44,-0.87c-0.58,-0.58 -0.87,-1.4 -0.87,-2.44l0,-7.95l-2.24,0l0,-1l2.24,0l0,-2.66l1.17,0l0,2.66l3.87,0l0,1l-3.87,0l0,7.84c0,0.79 0.19,1.39 0.57,1.8c0.38,0.42 0.94,0.62 1.69,0.62c0.75,0 1.39,-0.22 1.89,-0.67l0.49,0.81l0,0z" fill="white" id="svg_3"/>
  <path d="m46.54,19.79c0.8,0.77 1.21,1.9 1.21,3.39l0,7.72l-1.12,0l0,-2.17c-0.39,0.72 -0.96,1.27 -1.7,1.67c-0.75,0.4 -1.64,0.6 -2.69,0.6c-1.35,0 -2.42,-0.32 -3.2,-0.96c-0.79,-0.64 -1.18,-1.48 -1.18,-2.52c0,-1.04 0.36,-1.83 1.08,-2.46c0.73,-0.63 1.88,-0.94 3.47,-0.94l4.17,0l0,-0.98c0,-1.14 -0.3,-2 -0.92,-2.59c-0.61,-0.59 -1.51,-0.89 -2.69,-0.89c-0.81,0 -1.58,0.14 -2.32,0.42c-0.74,0.28 -1.37,0.66 -1.88,1.12l-0.58,-0.84c0.6,-0.54 1.33,-0.96 2.19,-1.27c0.85,-0.3 1.75,-0.45 2.68,-0.45c1.51,0 2.67,0.38 3.48,1.15l0,0zm-1.56,9.55c0.71,-0.47 1.24,-1.14 1.6,-2.03l0,-2.29l-4.15,0c-1.2,0 -2.06,0.22 -2.6,0.66c-0.53,0.43 -0.8,1.03 -0.8,1.79c0,0.77 0.29,1.42 0.88,1.88c0.59,0.46 1.43,0.69 2.5,0.69c1.01,0 1.87,-0.24 2.57,-0.7l0,0z" fill="white" id="svg_4"/>
  <path d="m53.58,18.56c-0.22,0 -0.41,-0.15 -0.44,-0.37l-2.84,-15.5c-0.03,-0.2 0.07,-0.4 0.26,-0.49c0.19,-0.08 0.41,-0.03 0.54,0.14l8.12,10.47l9.7,-5.17c0.22,-0.11 0.49,-0.03 0.61,0.19c0.11,0.22 0.03,0.49 -0.19,0.61l-10.04,5.34c-0.19,0.1 -0.43,0.05 -0.57,-0.12l-7.21,-9.32l2.5,13.69c0.04,0.24 -0.12,0.48 -0.36,0.52c-0.03,0.01 -0.06,0.01 -0.08,0.01l0,0z" fill="white" id="svg_11"/>
  <path d="m55.79,18.11c0,1.22 -0.99,2.21 -2.21,2.21c-1.23,0 -2.21,-0.99 -2.21,-2.21c0,-1.22 0.98,-2.21 2.21,-2.21c1.22,0 2.21,0.99 2.21,2.21z" fill="white" id="svg_12"/>
  <path d="m61.3,13.39c0,1.22 -0.99,2.21 -2.21,2.21c-1.22,0 -2.21,-0.99 -2.21,-2.21c0,-1.23 0.99,-2.22 2.21,-2.22c1.22,0 2.21,0.99 2.21,2.22z" fill="white" id="svg_13"/>
  <path d="m71.34,8.04c0,1.22 -0.99,2.21 -2.21,2.21c-1.23,0 -2.21,-0.99 -2.21,-2.21c0,-1.22 0.98,-2.21 2.21,-2.21c1.22,0 2.21,0.99 2.21,2.21z" fill="white" id="svg_14"/>
  <path d="m73.05,28.99c0,1.22 -0.99,2.21 -2.21,2.21c-1.23,0 -2.21,-0.99 -2.21,-2.21c0,-1.22 0.98,-2.21 2.21,-2.21c1.22,0 2.21,0.99 2.21,2.21z" fill="white" id="svg_15"/>
  <path d="m75.2,18.51c0,1.23 -0.99,2.22 -2.21,2.22c-1.23,0 -2.21,-0.99 -2.21,-2.22c0,-1.22 0.98,-2.21 2.21,-2.21c1.22,0 2.21,0.99 2.21,2.21z" fill="white" id="svg_16"/>
  <path d="m64.55,22.03c0,1.23 -0.99,2.22 -2.21,2.22c-1.22,0 -2.21,-0.99 -2.21,-2.22c0,-1.22 0.99,-2.21 2.21,-2.21c1.22,0 2.21,0.99 2.21,2.21z" fill="white" id="svg_17"/>
  <path d="m88.16,31.13c0,1.22 -0.99,2.21 -2.22,2.21c-1.22,0 -2.21,-0.99 -2.21,-2.21c0,-1.23 0.99,-2.22 2.21,-2.22c1.23,0 2.22,0.99 2.22,2.22z" fill="white" id="svg_18"/>
  <path d="m95,23.76c0,1.23 -0.99,2.22 -2.21,2.22c-1.22,0 -2.21,-0.99 -2.21,-2.22c0,-1.22 0.99,-2.21 2.21,-2.21c1.22,0 2.21,0.99 2.21,2.21z" fill="white" id="svg_19"/>
  <path d="m81.93,24.83c0,1.23 -0.99,2.22 -2.21,2.22c-1.22,0 -2.21,-0.99 -2.21,-2.22c0,-1.22 0.99,-2.21 2.21,-2.21c1.22,0 2.21,0.99 2.21,2.21l0,0z" fill="white" id="svg_20"/>
  <path d="m52.95,2.61c0,1.22 -0.98,2.21 -2.21,2.21c-1.22,0 -2.21,-0.99 -2.21,-2.21c0,-1.22 0.99,-2.21 2.21,-2.21c1.23,0 2.21,0.99 2.21,2.21z" fill="white" id="svg_21"/>
  <path d="m69.13,8.49c-0.05,0 -0.09,-0.01 -0.13,-0.02l-18.39,-5.43c-0.23,-0.07 -0.37,-0.32 -0.3,-0.56c0.07,-0.23 0.32,-0.37 0.56,-0.3l18.38,5.43c0.24,0.07 0.38,0.32 0.31,0.56c-0.06,0.19 -0.24,0.32 -0.44,0.32l0.01,0z" fill="white" id="svg_22"/>
  <path d="m85.94,31.58c-0.02,0 -0.04,0 -0.06,-0.01l-15.1,-2.13c0,0 -0.01,0 -0.02,-0.01l0,0c-0.08,-0.01 -0.15,-0.05 -0.21,-0.09l-8.49,-6.95c-0.06,-0.05 -0.11,-0.12 -0.14,-0.2c0,0 0,0 0,0c0,0 -0.01,-0.01 -0.01,-0.02c-0.03,-0.1 -0.02,-0.2 0.02,-0.31c0,-0.01 0.01,-0.01 0.01,-0.02l6.79,-13.99c0.06,-0.14 0.19,-0.23 0.34,-0.25c0.16,-0.02 0.31,0.04 0.4,0.15c0.07,0.08 0.16,0.18 3.91,10.51l6.65,6.25c0,0 0.01,0 0.01,0.01l0.01,0l6.22,6.29c0.13,0.14 0.17,0.35 0.08,0.52c-0.08,0.15 -0.23,0.25 -0.4,0.25l-0.01,0zm-13.54,-2.82l12.29,1.73l-5.07,-5.12l-7.22,3.39l0,0zm0.86,-9.37l-1.8,8.81l7.47,-3.49l-5.66,-5.32l-0.01,0zm-10,2.82l7.29,5.96l1.84,-8.98l-9.13,3.02l0,0zm5.82,-13.05l-5.87,12.12l9.2,-3.04c-1.14,-3.12 -2.64,-7.25 -3.33,-9.08z" fill="white" id="svg_23"/>
  <path d="m85.94,31.58c-0.11,0 -0.21,-0.04 -0.3,-0.12c-0.18,-0.17 -0.19,-0.46 -0.03,-0.64l6.85,-7.36c0.17,-0.18 0.46,-0.19 0.64,-0.02c0.18,0.17 0.19,0.45 0.02,0.63l-6.85,7.36c-0.09,0.1 -0.21,0.15 -0.33,0.15l0,0z" fill="white" id="svg_24"/>
  <path d="m62.34,22.49c-0.18,0 -0.35,-0.12 -0.42,-0.3l-3.25,-8.65c-0.09,-0.23 0.03,-0.49 0.26,-0.57c0.24,-0.09 0.49,0.03 0.58,0.26l3.25,8.65c0.09,0.23 -0.03,0.49 -0.26,0.58c-0.05,0.02 -0.11,0.03 -0.16,0.03l0,0z" fill="white" id="svg_25"/>
  <text fill="#76877e" font-family="Monospace" font-size="20" font-weight="bold" id="svg_27" stroke-width="0" text-anchor="middle" x="46.69" xml:space="preserve" y="51.62">Hellmann</text>
 </g>

</svg>
